X: 32419
T: Piper's Maggot, The
R: slip jig
M: 9/8
K: Dmixolydian
F2 D DED AFD|1 E/F/GE cGE cG:|2 E/F/GE cGE G2||
F2 A dAF d2 G|1 E/F/GE cGE G2:|2 E/F/GE cGE cG||

